!!!SOCIAL_FUNCTION:	dance songs
!!!PDT:	1957
!!!OTL: No_78_Pleasure_Dance_Song_(a).krn
!!!LING_GROUP: Keresan
!!!LANG: Tone
!!!REG: Southwest
**kern
*staff1
=1-
*clefF4
*k[]
*M2/4
8.A\L
16E\Jk
8A\
24G\LL
24A\
24G\JJ
=2
8E\L
16D\L
16D\JJ
4D\
=3
8.A\L
16E\Jk
8A\
24G\LL
24A\
24G\JJ
=4
8E\L
16D\L
16D\JJ
8D\
8r
=5
8.E/L
16C/Jk
8E\
24D\LL
24E\
24D\JJ
=6
8C/L
16AA/L
16AA/JJ
8AA/
8r
=7
8.E/L
16C/Jk
8E\
24D\LL
24E\
24D\JJ
=8
8C/L
16AA/L
16AA/JJ
8AA/
16r
16C/
=9
*M3/4
8D/L
16C/L
16AA/JJ
8C/L
16AA/L
16AA/JJ
8AA/
8r
=10
*M2/4
8C/L
16AA/L
16AA/JJ
4AA/
=11
8AA/L
8AA/J
[4AA/
=12
4AA/]
8AA/
8r
==:|!
*-
